symbols/web/filter_3/materialsymbolsoutlined/filter_3_wght700gradN25fill1_48px.svg

<svg xmlns="http://www.w3.org/2000/svg" height="48" width="48"><path d="M20.65 30.25h8.95q1.55 0 2.525-.95.975-.95.975-2.55V23.1q0-1.35-.725-2.1t-1.725-.75q1 0 1.725-.65.725-.65.725-2v-3.95q0-1.5-.975-2.45-.975-.95-2.525-.95h-8.95v3.4h8.95v5.15h-4.7v2.9h4.7v5.05h-8.95ZM14.2 38.4q-1.95 0-3.275-1.325T9.6 33.8V6.7q0-1.9 1.325-3.25T14.2 2.1h27.1q1.9 0 3.25 1.35T45.9 6.7v27.1q0 1.95-1.35 3.275T41.3 38.4Zm-7.45 7.5q-1.95 0-3.3-1.35-1.35-1.35-1.35-3.3V9.6h4.65v31.65H38.4v4.65Z"/></svg>

<svg xmlns="http://www.w3.org/2000/svg" height="48" width="48"><path d="M20.65 30.25H29.6Q31.15 30.25 32.125 29.3Q33.1 28.35 33.1 26.75V23.1Q33.1 21.75 32.375 21Q31.65 20.25 30.65 20.25Q31.65 20.25 32.375 19.6Q33.1 18.95 33.1 17.6V13.65Q33.1 12.15 32.125 11.2Q31.15 10.25 29.6 10.25H20.65V13.65H29.6Q29.6 13.65 29.6 13.65Q29.6 13.65 29.6 13.65V18.8Q29.6 18.8 29.6 18.8Q29.6 18.8 29.6 18.8H24.9V21.7H29.6Q29.6 21.7 29.6 21.7Q29.6 21.7 29.6 21.7V26.75Q29.6 26.75 29.6 26.75Q29.6 26.75 29.6 26.75H20.65ZM14.2 38.4Q12.25 38.4 10.925 37.075Q9.6 35.75 9.6 33.8V6.7Q9.6 4.8 10.925 3.45Q12.25 2.1 14.2 2.1H41.3Q43.2 2.1 44.55 3.45Q45.9 4.8 45.9 6.7V33.8Q45.9 35.75 44.55 37.075Q43.2 38.4 41.3 38.4ZM6.75 45.9Q4.8 45.9 3.45 44.55Q2.1 43.2 2.1 41.25V9.6H6.75V41.25Q6.75 41.25 6.75 41.25Q6.75 41.25 6.75 41.25H38.4V45.9Z"/></svg>
